images/html.svg

<svg width="80" height="80" viewBox="0 0 80 80" fill="none" xmlns="http://www.w3.org/2000/svg">
<path d="M68.4425 72.2225L40.0025 80L11.5625 72.2225L5 0H75.005L68.4425 72.2225Z" fill="#E44D26"/>
<path d="M40 5V74.375L63.08 67.52L69.22 5H40Z" fill="#FF6C39"/>
<path d="M60.9076 15H19.0176L20.0001 25L21.5476 42.5H48.7576L47.8701 52.46L40.0001 54.975L32.1426 52.46L31.6201 47.5H22.0076L23.1551 59.9675L40.0001 64.975L56.8201 59.965L59.2951 32.5H30.6301L30.0051 25H60.0001L60.9076 15Z" fill="white"/>
</svg>

<svg width="80" height="80" viewBox="0 0 80 80" fill="none" xmlns="http://www.w3.org/2000/svg"><path d="M68.442 72.222L40.002 80l-28.44-7.778L5 0h70.005l-6.563 72.222z" fill="#E44D26"/><path d="M40 5v69.375l23.08-6.855L69.22 5H40z" fill="#FF6C39"/><path d="M60.908 15h-41.89L20 25l1.548 17.5h27.21l-.888 9.96L40 54.975l-7.857-2.515-.523-4.96h-9.612l1.147 12.468L40 64.975l16.82-5.01L59.295 32.5H30.63l-.625-7.5H60l.908-10z" fill="#fff"/></svg>
